X:1
T:Cecilia, volgi un sguardo. HWV 89
T:Händel Georg Friedrich 
T:Cecilia, volgi un sguardo. HWV 89
C:Händel Georg Friedrich
%%score [ 1 2 ]
L:1/8
M:4/4
K:C
V:1 treble-8 transpose=-12 nm="Tenor"
V:2 bass nm=" " snm=" "
V:1
 z DGG z2 GA | AA z A BcdA | BB z2 z Bcd | ^G2 z G GGAB | cc z c cccB | A^G z G GGGA | %6
w: Ce- ci- lia, vol- gi~un|sguar- do ver- so~il suo- lo Bri-|tan- no, e scor- ge-|rai, che con so- no- ri~ac-|cen- ti rin- no- va~in ques- to|gior- no del no- me tuo si|
 BB z B/c/ d2 dc | BA z2 z A^cA | d2 z2 z d^cd | B2 z d dA z2 ||[K:G]"^Largo"[Q:1/4=50] z8 | z8 | %12
w: ca- ro la gra- di- ta me-|mo- ria per ce- le-|brar del- la vir-|tu la glo- ria.|||
 z8 |S z2 z B/>c/ dGGG | (G/>F/)G z B/c/ dAAA | (A/>G/)A z A/B/ cF F>c | BEee e (d/^c/) d>e | %17
w: |La vir- tu- te~un ve- ro|nu- * me del mor- tal nel bas- so|mon- * do, la vir- tu- te~un ve- ro|nu- me~un ve- ro nu- me _ del mor-|
 A>d E (F/G/) F/>d/d3/4^c/8d/8 e/>d/ (3c/4B/4A/4 (3G/4F/4E/4 | %18
w: tal nel bas- so _ mon- * * * * * * * * * * * *|
 F/>d/d3/4^c/8d/8 E/>F/F/>G/ G/A/4B/4 A/4B/4G/ FE/D/ | D2 z2 z4 | z2 d>B ^GA z/ c/A/=G/ | %21
w: |do,|la virt- tu- te, e~un ve- ro|
 FG z/ G/A/B/ (c/B/)c z B/A/ | B>e ^c>d (D/F/) A2 B/A/ | G>e dc (B/A/)G z B/c/ | %24
w: nu- me, e~un ve- ro nu- * me del mor-|tal nel bas- so mon- * do, la vir-|tu- te~un ve- ro nu- * me del mor-|
 d=FFF E/^G/A- A/4c/4e/4d/4 (3c/4B/4A/4 (3=G/4^F/4E/4 | %25
w: tal nel bas- so mon- * * * * * * * * * * * *|
 F/^A/B- B/4d/4f/4e/4 (3d/4c/4B/4 (3=A/4G/4F/4 G/B/c z B/A/ | B/F/G/c/ (BA/G/) G2 z B/c/ | %27
w: * * * * * * * * * * * * * * * do, del mor-|tal nel bas- so mon- * * do, la vir-|
 dGGG GGGG | (c/B/)c z/ (F/G/)A/ D2 z d/c/ | B>F G2- G/F/4E/<D/c/4 (B/4A/4G/A/>G/) | G2 z2 z4 | %31
w: tu- te~un ve- ro- nu- me~un ve- ro|nu- * me del _ mor- tal, del mor-|tal nel bas- * * * * so mon- * * * *|do|
 z8 | z8 | z2 z G/>A/ BEEE |] E^D z2 z2 B>c | cB z B/B/ eE c-A/>F/ | DG z G/G/ cB e>f | %37
w: ||Chi si sco- sta dal suo|lu- me, chi si|sco- sta va dell` om- bre nel _ pro-|fon- do, chi si sco- sta dal suo|
 (^d/^c/)B z B/B/ =C =c2 A/>F/ | ^DE z e/=d/ (c/4B/4)A/B/>c/ (GF/>E/) | E2 z2 z4 | z8 | %41
w: lu- * me va dell` om- bre nel pro-|fon- do, va dell` om- * bre nel pro- fon- * *|do||
S z2 z B/>c/ dGGG |] %42
w: La vir- tu- te~un ve- ro|
V:2
"^#" (G,,8 |"^j42" (G,,8) |"^5#" G,,8) |"^#" E,8 |"^7#" ^D,8 |"^Ä2" (=D,8 | D,8) |"^6" ^C,8 | %8
"^6" ^F,8 |"^#" G,6"^#" A,"^#"D, ||[K:G] z2 z"^6" B,/>C/"^#" DG,G,"^62"G, | %11
"^4" G,,/>F,,/"^3"G,, z C/>B,/"^7" A,"^3"D, z D/>C/ | %12
 B,E z A,/>G,/"^65" F,/>G,/"^6"B,,/>"^65"C,/"^64" D,"^53"D,, | %13
 G,,2 z G,,/>"^6"A,,/"^6" B,,C,"^64"D,E, | D,G,, z G,/A,/ B,"^6"C,D,"^64"E, | %15
 D,D,, z C/>B,/ A,D, z/ C/B,/A,/ | G,G,, z/"^6" G,/F,/E,/"^54" B,"^6"F, z G, | %17
"^6" ^C,D,"^6"G,,"^#"A,, D,B,,"^6"G,,"^#"A,, | %18
 D,"^6"F,,"^6"G,,"^6#"A,,"^6" B,,"^6"F,,/G,,/"^64" A,,"^5#"A,, | %19
 D,,2 z"^6" F,/>G,/"^#" A,D,D,"^42"D, |"^54" D,,/>^C,,/"^53"D,, z"^6§" D"^#" E,/>D/C/>B,/"^6" CC, | %21
"^42" z/ C/"^6"B,/A,/"^6" B,B,, z/ B,/A,/G,/ F,"^6"D, | G,E,"^#"A,G,"^6" F,>E,"^65" ^D,B,, | %23
 E,E,,"^6"F,,F, G,"^6"B,,/C,/ D,G,, | z"^t" B,,/C,/"^6§" D,"^u"G,,"^5" C,>"^6"B,, A,,"^6"C, | %25
"^5" D,>"^6"C, B,,"^6"D,"^5" E,>"^6"A,"^7" D,"^6"F, | %26
 G,/D,/E,/C,/"^64" D,"^53"D,, G,,"^6"B,/>C/ DG,,/>A,,/ |"^6" B,,C,"^64"D,E,"^6" B,,C,"^64"D,E, | %28
 A,,A, z G,,"^6" F,,2 z"^6" F, | G,"^6"D,E,C,"^64" D,2"^53" D,,2 | %30
 G,,2 z"^6" B,/>A,/ G,C, z C/>B,/ | A,D, z D/>C/ B,E z A,/>G,/ | %32
"^65" C/>B,/A, z"^42" C/>A,/"^6" B,/>F,/G,/>C,/"^64" D,"^53"D,, | %33
 !fermata!G,,2 z E,,/>F,,/"^6" G,,A,,"^64"B,,C, |]"^64" B,,"^5#"B,,,"^6" z G,/>A,/"^#" B,E,E,E, | %35
"^6" E,"^6"^D, z E,/=D,/"^7" C,"^6"C,, z C, |"^42" C,"^6"B,,B,,B,, A,,G,,/F,,/"^6" G,,A,, | %37
"^#" B,,B,,B,,,(B,,"^42" B,,)A,,/>^G,,/ A,,A,, | %38
"^Ä2" A,,"^6"G,, z G,, A,,"^6"G,,/A,,/"^64" B,,"^5#"B,,, | E,,2 z"^6" G,/>A,/"^#" B,E, E,D/>^C/ | %40
 DD, z B,/>=C/ DG,G,"^642"G, |"^4" G,,/>F,,/"^3"G,, z G,,/A,,/"^6" B,,C,"^64"D,E, |] %42

